X:1
T:Title
%%score ( 1 2 ) { 3 | 4 }
L:1/8
Q:1/4=110
M:6/8
K:Db
V:1 treble nm="Grand Piano, Staff 1"
V:2 treble 
V:3 treble nm="Choir Pad, I Am the Way"
V:4 bass 
V:1
 [FA] [GB]2 [FA] [DF]2 | [Fd] [Gd]2- [Gd] [Gc]2- | [Gc][Gc][GB] [FA] [EG]2 | %3
w: By~Fowler~Glenn,~1918 * * *|||
 [FA] [DF]2- [DF]2- [DF]/ z/ | [FA] [FB]2 [FA] [DF]2 | [Fd] [Ec]2- [Ec] [Ae]2- | %6
w: |||
 [Ae][=GB][Ac] [Bd] [Ac]2 | z A2- A3/2 z/ z | z A2- A3/2 z/ z | z d2- d2- d/ z/ | z c2- c3/2 z/ z | %11
w: |||||
 z d2- d3- | d3 z .G2 | [DB][DA][DA] [DA] [DF]2 | [Fd] [Ec]2- [Ec] [DB]2- | [DB] A2- A- [GA]2- | %16
w: |||||
 [GA]A-[FA-] [FA-][F-A]/F/F | Ad-[Fd-] [Gd-][F-d]>F | [Fd]c-[Gc-] [Gc-][G-c]/G/d | %19
w: |||
 [Ge]d-[Ad-] [Gd-] [Fd]2- | [Fd] [Gd]2 [Gd]dc | [GB][FA][FA] [Fd] [FA]2 | z3 z G2 | z6 | z6 |] %25
w: ||||||
V:2
 x6 | x6 | x6 | x6 | x6 | x6 | x6 | .[=GB]3 z _G2- | GFF FFF | AFF G F2 | [Fd]GG GGd | %11
 [Ge]FA G F2- | F [DB]2 [DB]D-[DA] | x6 | x6 | z C2- C z z | z .F2 z3 | z .F2 z3 | z .G2 z3 | %19
 z .F2 z3 | z3 z G2 | x6 | [EG] [DF]2- [DF] B,2- | [B,E] D2- D3- | D3 z3 |] %25
V:3
 D D2 D A,2 | A,[K:bass] A,2- A, A,2- | A,A,A, A, C2 | C A,2- A,2- A,/ z/ | D D2 D A,2 | %5
 A, A,2- A, C2- | CEE E E2 | D C2- C3- | CDD D .D2 | z[K:bass] A,A, B, A,2 | A,A,A, A, .A,2 | %11
 CDC B, A,2- | A, G,2 G,B,A, | G,A,A, A, A,2 | A, A,2- A, =G,2- | G, A,2- A,[K:treble] C2- | %16
 CDD D .D2 | z[K:bass] A,A, B, A,2 | A,A,A, A, .A,2 | CDC B, A,2- | A, B,2 B,B,[K:treble]C | %21
 DDD A, D2 | B, A,2- A,/ z/ E,2 | G, F,2- F,3- | F,3 z3 |] %25
V:4
 D, D,2 D, D,2 | D, E,2- E, A,,2- | A,,A,,A,, A,, A,,2 | A,, D,2- D,2- D,/ z/ | D, D,2 D, D,2 | %5
 D, E,2- E, E,2- | E,E,E, E, E,2 | E, A,,2- A,,3- | A,,D,D, D, .D,2 | z D,D, D, D,2 | %10
 D,A,,A,, A,, .A,,2 | A,,D,D, D, D,2- | D,3 z G,F, | z F,F, F, D,2 | D, E,2- E, E,2- | %15
 E, A,,2- A,,3- | A,,D,D, D, .D,2 | z D,D, D, D,2 | D,A,,A,, A,, .A,,2 | A,,D,D, D, D,2- | %20
 D, G,2 G, G,2 | G,D,D, D, D,2 | .G,3 z A,,2- | A,, D,2- D,3- | D,3 z3 |] %25

